X:227
T:The Providence
R:reel
M:4/4
L:1/8
K:Dmaj
~E3F DEFA|d2fd gefd|edBd A2FA|(3Bcd AF GFED|
~E3F DEFA|d2fd gefd|edBd A2FA|1 (3Bcd AG FDDF:|2 (3BcdAG FDDe||
|:fd~d2 fdad|fd~d2 ecAc|fd~d2 fdad|fgag fdde|
fgaf gfec|dBAF G2FG|(3ABA GB ABde|1 faeg fdde:|2 faeg fdAF||

